symbols/web/opacity/materialsymbolsoutlined/opacity_wght300gradN25_20px.svg

<svg xmlns="http://www.w3.org/2000/svg" height="20" width="20"><path d="M10 16.938q-2.542 0-4.323-1.761-1.781-1.76-1.781-4.26 0-1.229.479-2.313.479-1.083 1.313-1.937L10 2.438l4.312 4.229q.855.833 1.323 1.927.469 1.094.469 2.323 0 2.5-1.781 4.26-1.781 1.761-4.323 1.761Zm-4.771-5.292h9.583q.23-1.479-.302-2.511-.531-1.031-1.052-1.552L10 4.167 6.542 7.583q-.521.521-1.032 1.563-.51 1.042-.281 2.5Z"/></svg>

<svg xmlns="http://www.w3.org/2000/svg" height="20" width="20"><path d="M10 16.938Q7.458 16.938 5.677 15.177Q3.896 13.417 3.896 10.917Q3.896 9.688 4.375 8.604Q4.854 7.521 5.688 6.667L10 2.438L14.312 6.667Q15.167 7.5 15.635 8.594Q16.104 9.688 16.104 10.917Q16.104 13.417 14.323 15.177Q12.542 16.938 10 16.938ZM5.229 11.646H14.812Q15.042 10.167 14.51 9.135Q13.979 8.104 13.458 7.583L10 4.167L6.542 7.583Q6.021 8.104 5.51 9.146Q5 10.188 5.229 11.646Z"/></svg>
